X: 18034
T: Hullichan
R: jig
M: 6/8
K: Gmajor
D|GAG BGB|dfg dBG|cde dBG|FAA A2 D|
GAG BGB|dfg dBG|cde Adc|BGG G2:|
|:f|gfg dBG|efg dBG|cde dBG|FAA A2 f|gfg dBG|
cde dBG|DEG Adc|BGG G2 f||
gfg dBG|efg dBG|cde dBG|FAA A2 f|
gfg efg|fag fed|efg Adc|BGG G2:|

